src/lib/packages/icons/src/assets/line/papers.svg

<svg width="24" height="24" viewBox="0 0 24 24" fill="none" xmlns="http://www.w3.org/2000/svg">
<path d="M19.339 2.50596L12.7738 1.34801C11.4818 1.12101 10.4168 1.29199 9.60684 1.85899C8.79684 2.42599 8.27183 3.36796 8.04483 4.65996L7.93692 5.27397L4.65786 5.851C2.06386 6.312 0.889003 7.99396 1.35 10.587L2.89395 19.34C3.11795 20.632 3.6399 21.574 4.4479 22.141C5.0259 22.546 5.73389 22.75 6.56289 22.75C6.89489 22.75 7.2478 22.717 7.6188 22.651L14.1898 21.494C16.0568 21.156 16.8979 20.254 17.2719 19.385C17.3199 19.386 17.375 19.399 17.422 19.399C19.422 19.399 20.716 18.217 21.11 15.99L22.653 7.23601C23.108 4.64301 21.933 2.96297 19.339 2.50596ZM13.9259 20.0179L7.35782 21.1739C6.46982 21.3299 5.78096 21.2439 5.30996 20.9129C4.83996 20.5829 4.52498 19.968 4.37198 19.081L2.82681 10.324C2.51081 8.53996 3.13685 7.64401 4.91885 7.32701L7.65884 6.84495L6.50088 13.414C6.04388 16.008 7.21989 17.688 9.81289 18.145L15.663 19.176C15.385 19.505 14.8819 19.8439 13.9259 20.0179ZM21.175 6.976L19.632 15.73C19.317 17.514 18.4218 18.141 16.6378 17.826L10.0729 16.668C8.2899 16.354 7.66296 15.459 7.97696 13.675L9.5209 4.921C9.6769 4.035 9.99595 3.418 10.4669 3.088C10.7879 2.864 11.208 2.75096 11.724 2.75096C11.966 2.75096 12.2298 2.77597 12.5138 2.82597L19.079 3.98399C20.862 4.29699 21.489 5.192 21.175 6.976Z" fill="currentColor"/>
</svg>

<svg xmlns="http://www.w3.org/2000/svg" width="24" height="24" fill="none"><path fill="currentColor" d="m19.339 2.506-6.565-1.158c-1.292-.227-2.357-.056-3.167.511-.81.567-1.335 1.509-1.562 2.801l-.108.614-3.28.577C2.065 6.312.89 7.994 1.35 10.587l1.544 8.753c.224 1.292.746 2.234 1.554 2.801.578.405 1.286.609 2.115.609.332 0 .685-.033 1.056-.099l6.57-1.157c1.868-.338 2.709-1.24 3.083-2.109.048.001.103.014.15.014 2 0 3.294-1.182 3.688-3.409l1.543-8.754c.455-2.593-.72-4.273-3.314-4.73Zm-5.413 17.512-6.568 1.156c-.888.156-1.577.07-2.048-.261-.47-.33-.785-.945-.938-1.832l-1.545-8.757c-.316-1.784.31-2.68 2.092-2.997l2.74-.482L6.5 13.414c-.457 2.594.719 4.274 3.312 4.731l5.85 1.031c-.278.329-.781.668-1.737.842Zm7.249-13.042-1.543 8.754c-.315 1.784-1.21 2.411-2.994 2.096l-6.565-1.158c-1.783-.314-2.41-1.209-2.096-2.993l1.544-8.754c.156-.886.475-1.503.946-1.833.32-.224.741-.337 1.257-.337.242 0 .506.025.79.075l6.565 1.158c1.783.313 2.41 1.208 2.096 2.992Z"/></svg>
